X:09
T:Chapter of Kings. TJD.09
M:6/8
L:1/8
Q:1/4=90
S:T.J.Dixon MS1, Lincolnshire 1798
R:Air
A:Lincolnshire, Holton le Moor
Z:Vmp.R.Greig2010
K:C
[G2D2]|[GD][cG][cG] [cG][BF][cG]|[d2A2][BF][G2D2][G/D/][G/D/]|\
[GD][dA][dA] [dA][eB][fc]|[g2d2][eB] [c2G2][g/d/][f/c/]|!
[eB][fc][gd] [gd][fc][eB]|[a2e2][fc][d2A2]|\
[fc][eB][fc] [fc][eB][dA]|[g2d2][eB][c2G2][GD]|!
[GD][cG][cG] [BF][dA][dA]|[eB][cA][cA] [gc][dA][dA]|\
[eB][fc][gd] [fc][eB][dA]|[c3G3]-“Symph”[cG][G2D2]|!
[GD][cG][cG] [FB][dA][dA]|[eB][cG][cG] [fc][dA]d|\
[eB][fc][gd] [fc][eB][dA]|[c3G3]-[c2G2]:|]

